www.topmonks.com/src/icons/img_logo_shoptet.svg

<svg viewBox="0 0 156 60" fill="none" xmlns="http://www.w3.org/2000/svg">
<g clip-path="url(#clip0)">
<path d="M56.5268 39.1517C56.5268 40.4677 56.0724 41.5571 55.1668 42.4233C54.2613 43.2896 53.1452 43.7227 51.8186 43.7227C49.9005 43.7227 48.3701 42.9897 47.2273 41.5271L48.4871 40.1012C49.5062 41.244 50.5856 41.8137 51.7284 41.8137C52.4802 41.8137 53.1485 41.5705 53.7333 41.0807C54.3181 40.5943 54.6121 39.9779 54.6121 39.2383C54.6121 38.4887 54.2646 37.829 53.5696 37.2593C53.2254 36.9728 52.5504 36.5763 51.5412 36.0633C50.3884 35.4736 49.5463 34.8905 49.015 34.3108C48.2899 33.5312 47.929 32.6017 47.929 31.5156C47.929 30.3096 48.3367 29.3234 49.152 28.5571C49.9674 27.7942 50.9799 27.411 52.1928 27.4077C53.623 27.4077 55.0632 28.1074 56.5135 29.5033L55.227 30.8293C54.161 29.8032 53.1184 29.2901 52.0993 29.2901C51.4811 29.2901 50.9331 29.4933 50.4586 29.8998C49.9807 30.3062 49.7435 30.8126 49.7435 31.419C49.7435 32.4385 50.7326 33.4613 52.7141 34.4841C53.9305 35.1138 54.816 35.7135 55.3707 36.2832C56.1392 37.0794 56.5235 38.0356 56.5268 39.1517Z" fill="#A7C721"/>
<path d="M72.4593 43.3229H70.441V35.9267C70.441 34.141 70.3675 32.9516 70.2271 32.3485C69.7326 30.2896 68.4294 29.2568 66.3175 29.2568C65.1079 29.2568 64.0285 29.6533 63.0729 30.4462C62.1172 31.2391 61.4856 32.2286 61.1849 33.418C60.9944 34.1609 60.8975 35.5636 60.9009 37.6358V43.3229H58.8826V21.8106H60.9009V30.5828C62.5081 28.4639 64.4529 27.4044 66.7319 27.4044C67.8646 27.4044 68.8872 27.6943 69.7961 28.2673C70.705 28.8437 71.3766 29.6333 71.811 30.6427C72.2454 31.6522 72.4593 33.2148 72.4593 35.3337V43.3229Z" fill="#A7C721"/>
<path d="M89.0033 35.6502C89.0033 33.9444 88.4185 32.4685 87.2557 31.2324C86.0895 29.9964 84.6559 29.3767 82.9518 29.3734C81.2476 29.3734 79.8141 29.9931 78.6479 31.2324C77.4817 32.4718 76.9002 33.9444 76.9002 35.6502C76.9002 36.7529 77.1609 37.7791 77.6855 38.7386C78.2268 39.7247 78.9653 40.4843 79.8976 41.0141C80.8299 41.5438 81.8457 41.8103 82.9518 41.8103C85.3109 41.8103 87.0585 40.8008 88.188 38.7786C88.7326 37.8124 89.0033 36.7696 89.0033 35.6502ZM91.0483 35.6035C91.0483 37.8857 90.2697 39.8114 88.7159 41.3739C87.1621 42.9398 85.2374 43.7194 82.9518 43.7227C80.6628 43.7227 78.7381 42.9431 77.1776 41.3839C75.6171 39.8247 74.8385 37.899 74.8385 35.6068C74.8385 33.4579 75.5536 31.5956 76.9838 30.0164C78.5576 28.2773 80.5459 27.4077 82.9484 27.4077C85.341 27.4077 87.3258 28.2739 88.8997 30.0031C90.3332 31.5789 91.0483 33.448 91.0483 35.6035Z" fill="#A7C721"/>
<path d="M107.809 35.5902C107.809 34.4908 107.532 33.448 106.981 32.4585C106.429 31.4723 105.678 30.7061 104.732 30.1597C103.786 29.6166 102.754 29.3401 101.641 29.3401C99.87 29.3401 98.403 29.9498 97.2368 31.1625C96.0706 32.3785 95.4892 33.8711 95.4892 35.6469C95.4892 38.1156 96.5117 39.918 98.5567 41.0541C99.5358 41.6038 100.575 41.8803 101.668 41.8803C102.77 41.8803 103.8 41.5971 104.752 41.0274C105.674 40.471 106.413 39.6948 106.971 38.7086C107.532 37.7225 107.809 36.683 107.809 35.5902ZM109.841 35.5203C109.841 37.7858 109.079 39.7114 107.556 41.2973C106.012 42.9131 104.114 43.7227 101.868 43.7227C99.3988 43.7227 97.3237 42.6999 95.6362 40.6543V49H93.6346V27.8042H95.6362V30.6561C97.2168 28.4872 99.2752 27.4044 101.811 27.4044C104.05 27.4044 105.948 28.2007 107.509 29.7865C109.063 31.3757 109.841 33.2847 109.841 35.5203Z" fill="#A7C721"/>
<path d="M119.368 29.53H116.19V43.3229H114.158V29.53H111.425V27.8042H114.158V22.0405H116.19V27.8042H119.368V29.53Z" fill="#6C963D"/>
<path d="M134.295 33.981C133.797 32.0254 132.734 30.6694 131.103 29.9131C130.265 29.5267 129.382 29.3334 128.457 29.3334C126.93 29.3334 125.617 29.8198 124.521 30.7927C123.719 31.5023 123.114 32.5651 122.706 33.981H134.295ZM136.483 35.7202H122.506C122.542 37.4559 123.087 38.9052 124.136 40.0613C125.239 41.2773 126.649 41.8837 128.367 41.8837C130.024 41.8837 131.428 41.3839 132.58 40.3778C133.105 39.9247 133.67 39.1917 134.281 38.1756L135.969 39.0584C134.919 41.1041 133.463 42.4834 131.605 43.1963C130.696 43.5495 129.673 43.7227 128.53 43.726C126.195 43.726 124.26 42.9564 122.729 41.4139C121.199 39.8747 120.434 37.939 120.434 35.6069C120.434 33.6379 121.039 31.8855 122.252 30.3429C123.785 28.3839 125.84 27.4044 128.417 27.4044C131.07 27.4044 133.185 28.4072 134.769 30.4129C135.892 31.8388 136.463 33.6112 136.483 35.7202Z" fill="#6C963D"/>
<path d="M146 29.53H142.826V43.3229H140.794V29.53H138.06V27.8042H140.794V22.0405H142.826V27.8042H146V29.53Z" fill="#6C963D"/>
<path d="M25.5373 27.5743H9V44.0625H25.5373V27.5743Z" fill="#A7C721"/>
<path d="M43.164 27.5743H26.6267V44.0625H43.164V27.5743Z" fill="#14B1EF"/>
<path d="M34.242 10H17.7047V26.4882H34.242V10Z" fill="#F7A12B"/>
</g>
<defs>
<clipPath id="clip0">
<rect width="137" height="39" fill="white" transform="translate(9 10)"/>
</clipPath>
</defs>
</svg>

<svg viewBox="0 0 156 60" fill="none" xmlns="http://www.w3.org/2000/svg">
  <path
    d="M56.527 39.152c0 1.316-.455 2.405-1.36 3.271-.906.867-2.022 1.3-3.348 1.3-1.919 0-3.449-.733-4.592-2.196l1.26-1.426c1.02 1.143 2.099 1.713 3.241 1.713.752 0 1.42-.243 2.005-.733.585-.487.88-1.103.88-1.843 0-.75-.348-1.409-1.043-1.979-.345-.286-1.02-.683-2.029-1.196-1.153-.59-1.995-1.172-2.526-1.752-.725-.78-1.086-1.71-1.086-2.795 0-1.206.408-2.193 1.223-2.959.815-.763 1.828-1.146 3.04-1.15 1.431 0 2.871.7 4.322 2.096l-1.287 1.326c-1.066-1.026-2.109-1.539-3.128-1.539a2.45 2.45 0 00-1.64.61c-.478.406-.716.913-.716 1.519 0 1.02.99 2.042 2.971 3.065 1.217.63 2.102 1.23 2.657 1.8.768.795 1.152 1.752 1.156 2.868zM72.46 43.323H70.44v-7.396c0-1.786-.073-2.975-.214-3.578-.494-2.06-1.798-3.092-3.91-3.092-1.21 0-2.288.396-3.244 1.19a5.541 5.541 0 00-1.888 2.971c-.19.743-.288 2.146-.284 4.218v5.687h-2.018V21.81H60.9v8.772c1.607-2.12 3.552-3.179 5.83-3.179 1.134 0 2.156.29 3.065.863a5.158 5.158 0 012.015 2.376c.434 1.01.648 2.572.648 4.69v7.99zM89.003 35.65c0-1.706-.585-3.181-1.747-4.418-1.166-1.236-2.6-1.855-4.304-1.859-1.704 0-3.138.62-4.304 1.86-1.166 1.239-1.748 2.711-1.748 4.417 0 1.103.26 2.13.785 3.089.542.986 1.28 1.745 2.213 2.275.932.53 1.948.796 3.054.796 2.359 0 4.106-1.01 5.236-3.031a6.265 6.265 0 00.815-3.129zm2.045-.047c0 2.283-.778 4.208-2.332 5.77-1.554 1.567-3.479 2.346-5.764 2.35-2.29 0-4.214-.78-5.774-2.34-1.56-1.558-2.34-3.484-2.34-5.776 0-2.15.716-4.011 2.146-5.59 1.574-1.74 3.562-2.61 5.964-2.61 2.393 0 4.378.867 5.952 2.596 1.433 1.576 2.148 3.445 2.148 5.6zM107.809 35.59c0-1.1-.277-2.142-.828-3.132a5.961 5.961 0 00-2.249-2.298 6.11 6.11 0 00-3.091-.82c-1.771 0-3.238.61-4.404 1.823-1.166 1.216-1.748 2.708-1.748 4.484 0 2.469 1.023 4.271 3.068 5.407.979.55 2.018.826 3.111.826a5.904 5.904 0 003.084-.853c.922-.556 1.661-1.332 2.219-2.318a6.21 6.21 0 00.838-3.119zm2.032-.07c0 2.266-.762 4.191-2.285 5.777-1.544 1.616-3.442 2.426-5.688 2.426-2.47 0-4.544-1.023-6.232-3.069V49h-2.001V27.804h2.001v2.852c1.58-2.169 3.64-3.252 6.175-3.252 2.239 0 4.137.797 5.698 2.383 1.554 1.589 2.332 3.498 2.332 5.733z"
    fill="#A7C721"/>
  <path
    d="M119.368 29.53h-3.178v13.793h-2.032V29.53h-2.733v-1.726h2.733v-5.763h2.032v5.763h3.178v1.726zM134.295 33.981c-.498-1.956-1.561-3.312-3.192-4.068a6.25 6.25 0 00-2.646-.58c-1.527 0-2.84.487-3.936 1.46-.802.71-1.407 1.772-1.815 3.188h11.589zm2.188 1.74h-13.977c.036 1.735.581 3.184 1.63 4.34 1.103 1.216 2.513 1.823 4.231 1.823 1.657 0 3.061-.5 4.213-1.506.525-.453 1.09-1.186 1.701-2.202l1.688.882c-1.05 2.046-2.506 3.425-4.364 4.138-.909.354-1.932.527-3.075.53-2.335 0-4.27-.77-5.801-2.312-1.53-1.54-2.295-3.475-2.295-5.807 0-1.97.605-3.721 1.818-5.264 1.533-1.96 3.588-2.939 6.165-2.939 2.653 0 4.768 1.003 6.352 3.009 1.123 1.426 1.694 3.198 1.714 5.307zM146 29.53h-3.174v13.793h-2.032V29.53h-2.734v-1.726h2.734v-5.763h2.032v5.763H146v1.726z"
    fill="#6C963D"/>
  <path d="M25.537 27.574H9v16.488h16.537V27.575z" fill="#A7C721"/>
  <path d="M43.164 27.574H26.627v16.488h16.537V27.575z" fill="#14B1EF"/>
  <path d="M34.242 10H17.705v16.488h16.537V10z" fill="#F7A12B"/>
</svg>
